src/assets/images/calendar-icon-mask.svg

<?xml version="1.0" encoding="UTF-8" standalone="no"?>
<svg
   xmlns:dc="http://purl.org/dc/elements/1.1/"
   xmlns:cc="http://creativecommons.org/ns#"
   xmlns:rdf="http://www.w3.org/1999/02/22-rdf-syntax-ns#"
   xmlns:svg="http://www.w3.org/2000/svg"
   xmlns="http://www.w3.org/2000/svg"
   xmlns:sodipodi="http://sodipodi.sourceforge.net/DTD/sodipodi-0.dtd"
   xmlns:inkscape="http://www.inkscape.org/namespaces/inkscape"
   version="1.1"
   preserveAspectRatio="xMidYMid meet"
   viewBox="0 0 24 24"
   width="24"
   height="24"
   id="svg3802"
   sodipodi:docname="calendar-icon-mask.svg"
   inkscape:version="0.92.2 5c3e80d, 2017-08-06">
  <metadata
     id="metadata3806">
    <rdf:RDF>
      <cc:Work
         rdf:about="">
        <dc:format>image/svg+xml</dc:format>
        <dc:type
           rdf:resource="http://purl.org/dc/dcmitype/StillImage" />
        <dc:title></dc:title>
      </cc:Work>
    </rdf:RDF>
  </metadata>
  <sodipodi:namedview
     pagecolor="#ffffff"
     bordercolor="#666666"
     borderopacity="1"
     objecttolerance="10"
     gridtolerance="10"
     guidetolerance="10"
     inkscape:pageopacity="0"
     inkscape:pageshadow="2"
     inkscape:window-width="1366"
     inkscape:window-height="715"
     id="namedview3804"
     showgrid="true"
     showguides="false"
     inkscape:zoom="21.416667"
     inkscape:cx="12"
     inkscape:cy="0.79377432"
     inkscape:window-x="0"
     inkscape:window-y="312"
     inkscape:window-maximized="1"
     inkscape:current-layer="svg3802">
    <inkscape:grid
       type="xygrid"
       id="grid3814" />
  </sodipodi:namedview>
  <defs
     id="defs3788">
    <path
       d="M0 0L24 0L24 24L0 24L0 0Z"
       id="b8eP6aPBK" />
    <path
       d="M26.25 22.25C26.25 24.46 24.46 26.25 22.25 26.25C20.04 26.25 18.25 24.46 18.25 22.25C18.25 20.04 20.04 18.25 22.25 18.25C24.46 18.25 26.25 20.04 26.25 22.25Z"
       id="jtt1BIdzu" />
  </defs>
  <path
     style="fill:#000000"
     d="M -1.1679688 -0.140625 L -1.1679688 24.373047 L 18.667969 24.373047 A 4 4 0 0 1 18.199219 22.5 A 4 4 0 0 1 22.199219 18.5 A 4 4 0 0 1 24.560547 19.277344 L 24.560547 -0.140625 L -1.1679688 -0.140625 z M 24.560547 19.277344 L 24.560547 24.373047 L 18.667969 24.373047 A 4 4 0 0 0 22.199219 26.5 A 4 4 0 0 0 26.199219 22.5 A 4 4 0 0 0 24.560547 19.277344 z "
     id="rect3808" />
</svg>

<svg xmlns="http://www.w3.org/2000/svg" width="24" height="24"><path d="M-1.168-.14v24.513h19.836a4 4 0 0 1-.469-1.873 4 4 0 0 1 4-4 4 4 0 0 1 2.362.777V-.14H-1.168zm25.729 19.417v5.096h-5.893a4 4 0 0 0 3.531 2.127 4 4 0 0 0 4-4 4 4 0 0 0-1.638-3.223z"/></svg>
